X:1
T:Standin In The Need of Prayer
T:Heab'n
T:Copyright 1918 by Homer A. Rodeheaver
T:Rodeheaver's Plantation Melodies
T:Rodeheaver's Plantation Melodies
Z:Rodeheaver's Plantation Melodies
%%score [ 1 2 3 4 ]
L:1/8
Q:1/4=100
M:4/4
K:Ab
V:1 treble nm="Soprano" snm="S."
V:2 treble nm="Alto" snm="A."
V:3 bass nm="Tenor" snm="T."
V:4 bass nm="Bass" snm="B."
V:1
 A2 AA c4 | A2 AA c4 | c2 c2 cBAB | c6 z2 | cccc cBAA | B B2 c BAFG | A2 A2 BA F2 | E A6 z | %8
 B B6 z | c c6 z | cccc cB A2 | B<B c2 BA F2 | E A6 z | B B4 z AA | c2 c2 cB A2 | F A4 z :| %16
"^CODA  After last stanza" AA | c2 c2 cB A2 | F A4 z"^Hum with closed lips." A2 | c2 c2 cB A2 | %20
 F!fermata!AFE !fermata!FEF!fermata!A || %21
V:2
 C2 CC E4 | C2 CC E4 | E2 E2 EDCD | E6 z2 | EEEE EDCC | D D2 E DCDE | C2 E2 FF D2 | C C6 z | %8
w: I got- a shoes,|you got- a shoes,|All God'd chil- dren got- a|shoes,|When I go to Hea- b'n gon- na|put on my sho- es, Gon- na|wall all ob- er God's|Hea- b'n,|
w: I got- a song,|you got- a song,|All God's chil- dren got- a|song,|When I go to Hea- b'n gon- na|sing a new so- ng, Gon- na|sing all ob- er God's|Hea- b'n,|
w: I got- a cross,|you got- a cross,|All God'd chil- dren got- a|cross,|When I go to Hea- b'n gon- na|lay down my cro- ss. Gon- na|shout all ob- er God's|Hea- b'n,|
 E E6 z | E E6 z | EEEE ED C2 | D<D E2 DC D2 | C C6 z | D D4 z CC | E2 E2 ED C2 | C C4 z :| CC | %17
w: Hea- b'n,|Hea- b'n;|Ev- 'ry- bo- dy talk a- bout|Hea- b'n aint goin' the- re,|Hea- b'n,|Hea- b'n, Gon- na|walk all ob- er God's|Hea- b'n.|Gon- na|
w: Hea- b'n,|Hea- b'n;|Ev- 'ry- bo- dy talk a- bout|Hea- b'n aint goin' the- re,|Hea- b'n,|Hea- b'n, Gon- na|sing all ob- er God's|Hea- b'n.||
w: Hea- b'n,|Hea- b'n;|Ev- 'ry- bo- dy talk a- bout|Hea- b'n aint goin' the- re,|Hea- b'n,|Hea- b'n, Gon- na|shout all ob- er God's|Hea- b'n.||
 E2 E2 ED C2 | D C4 z C2 | E2 E2 ED C2 | C8 || %21
w: shout all o- ber God's|Hea- b'n Mm-||.|
w: ||||
w: ||||
V:3
 A,2 A,A, A,4 | A,2 A,A, A,4 | A,2 A,2 A,A,A,A, | A,6 z2 | A,A,A,A, A,A,A,A, | G, G,2 G, A,2 A,A, | %6
 A,2 A,2 DD A,2 | A,2 A,6 | G, G,6 z | A, A,6 z | A,A,A,A, A,A, A,2 | G,<G, G,2 A,A, A,2 | %12
 A, A,6 z | G, G,4 z A,A, | A,2 A,2 A,A, A,2 | A, E,4 z :| A,A, | A,2 A,2 A,A, A,2 | %18
 A, E,4 z A,2- | A,8- | A,8 || %21
V:4
 A,,2 A,,A,, A,,4 | A,,2 A,,A,, A,,4 | A,,2 A,,2 A,,A,,A,,A,, | A,,6 z2 | %4
 A,,A,,A,,A,, A,,A,,A,,A,, | E, E,2 E, A,,2 A,,A,, | A,,2 C,2 D,D, D,2 | A,,2 A,,6 | E, E,6 z | %9
 A, A,6 z | A,,A,,A,,A,, A,,A,, A,,2 | E,<E, E,2 A,,A,, A,,2 | A,, A,,6 z | E, E,4 z A,,A,, | %14
 A,,2 A,,2 A,,A,, A,,2 | A,, A,,4 z :| A,,A,, | A,,2 A,,2 A,,A,, A,,2 | A,, A,,4 z A,,2- | A,,8- | %20
 A,,8 || %21

